static/img/menus/ico-air-report-app.svg

<svg width="16" height="16" viewBox="0 0 16 16" fill="none" xmlns="http://www.w3.org/2000/svg">
<path d="M7.08984 0.554688C7.66798 0.55475 8.21788 0.805311 8.59766 1.24121L13.4189 6.77734H13.4443V6.80566L13.5078 6.87891C13.8248 7.24291 13.9999 7.70969 14 8.19238V13.2217C14 14.3262 13.1046 15.2217 12 15.2217H4C2.89543 15.2217 2 14.3262 2 13.2217V2.55469C2.00018 1.45027 2.89554 0.554688 4 0.554688H7.08984ZM4 1.66602C3.50919 1.66602 3.1115 2.06392 3.11133 2.55469V13.2217C3.11133 13.7126 3.50908 14.1104 4 14.1104H12C12.4909 14.1104 12.8887 13.7126 12.8887 13.2217V8.19238C12.8886 8.08782 12.8692 7.98537 12.834 7.88867H8.77734C7.97994 7.88844 7.33324 7.24174 7.33301 6.44434V1.70117C7.2546 1.67882 7.17302 1.66604 7.08984 1.66602H4ZM8.44434 6.44434C8.44457 6.62809 8.59359 6.77711 8.77734 6.77734H11.9453L8.44434 2.75684V6.44434Z" fill="currentColor"/>
</svg>

<svg xmlns="http://www.w3.org/2000/svg" width="16" height="16" fill="none" viewBox="0 0 16 16"><path fill="currentColor" d="M7.09.555a2 2 0 0 1 1.508.686l4.82 5.536h.026v.029l.064.073c.317.364.492.83.492 1.313v5.03a2 2 0 0 1-2 2H4a2 2 0 0 1-2-2V2.555a2 2 0 0 1 2-2zM4 1.666a.89.89 0 0 0-.889.889v10.667c0 .49.398.888.889.888h8c.49 0 .889-.397.889-.888v-5.03a.9.9 0 0 0-.055-.303H8.777a1.445 1.445 0 0 1-1.444-1.445V1.701a1 1 0 0 0-.243-.035zm4.444 4.778c0 .184.15.333.333.333h3.168l-3.5-4.02z"/></svg>
